symbols/web/view_in_ar/materialsymbolssharp/view_in_ar_wght300gradN25_40px.svg

<svg xmlns="http://www.w3.org/2000/svg" height="40" width="40"><path d="m19.958 33.083-11.125-6.5V13.667L20 7.083l11.167 6.584v12.916ZM19 30.208v-9.541l-8.125-4.625v9.375Zm2 0 8.167-4.833v-9.333L21 20.667ZM2.708 9.875V2.708h7.167v2H4.708v5.167Zm7.167 27.417H2.708v-7.167h2v5.167h5.167Zm20.25-.25v-2h5.167v-5.125h2v7.125Zm5.167-27.167V4.708h-5.167v-2h7.167v7.167Zm-15.292 9 8.125-4.667L20 9.542l-8.125 4.666Zm0 1.792Zm0-1.792Zm1 1.792Zm-2 0Z"/></svg>

<svg xmlns="http://www.w3.org/2000/svg" height="40" width="40"><path d="M19.958 33.083 8.833 26.583V13.667L20 7.083L31.167 13.667V26.583ZM19 30.208V20.667L10.875 16.042V25.417ZM21 30.208 29.167 25.375V16.042L21 20.667ZM2.708 9.875V2.708H9.875V4.708H4.708V9.875ZM9.875 37.292H2.708V30.125H4.708V35.292H9.875ZM30.125 37.042V35.042H35.292V29.917H37.292V37.042ZM35.292 9.875V4.708H30.125V2.708H37.292V9.875ZM20 18.875 28.125 14.208 20 9.542 11.875 14.208ZM20 20.667ZM20 18.875ZM21 20.667ZM19 20.667Z"/></svg>
